img/delivery.svg

<svg width="24" height="24" viewBox="0 0 24 24" fill="none" xmlns="http://www.w3.org/2000/svg">
<path d="M23.9108 12.0243C23.9058 12.0063 23.9068 11.9873 23.8998 11.9713C23.8798 11.9223 23.8498 11.8783 23.8128 11.8413C23.8128 11.8413 23.8128 11.8403 23.8118 11.8403L19.1828 7.23132C19.1078 7.15732 19.0068 7.11532 18.9008 7.11532L15.8568 7.11332V5.20632C15.8568 4.35032 15.1608 3.65332 14.3038 3.65332H1.62385C0.767848 3.65332 0.0698477 4.35032 0.0698477 5.20632L0.0688477 16.7373C0.0688477 17.5933 0.765848 18.2903 1.62285 18.2903H3.23385C3.42485 19.4563 4.43885 20.3473 5.65785 20.3473C6.87685 20.3473 7.88985 19.4553 8.08185 18.2903H16.7468C16.9378 19.4563 17.9518 20.3473 19.1698 20.3473C20.3888 20.3473 21.4018 19.4553 21.5938 18.2903H23.5198C23.7408 18.2903 23.9188 18.1113 23.9198 17.8913L23.9318 12.1253C23.9308 12.0893 23.9198 12.0573 23.9108 12.0243ZM22.5618 11.7243H20.1398L20.4028 11.0493C20.4828 10.8433 20.3818 10.6113 20.1748 10.5313C19.9678 10.4513 19.7368 10.5523 19.6558 10.7593L19.2798 11.7243H15.8928V7.91332L18.7368 7.91632L22.5618 11.7243ZM1.62385 4.45332H14.3058C14.7208 4.45332 15.0578 4.79132 15.0578 5.20632V7.51232C15.0578 7.56432 15.0718 7.61432 15.0928 7.66032V13.7053H0.869848V9.63632H7.90985V10.0523C7.90685 10.4733 8.15885 10.6593 8.30785 10.7313C8.40185 10.7773 8.49985 10.8003 8.59785 10.8003C8.81185 10.8003 8.96885 10.6963 9.06685 10.6183L11.6208 8.63032C11.8258 8.46932 11.9398 8.26232 11.9398 8.04632C11.9408 7.84232 11.8418 7.65232 11.6628 7.51032C10.7918 6.82332 9.91585 6.14132 9.03785 5.46132C8.69785 5.20032 8.20785 5.29432 8.01185 5.65032C7.95085 5.76232 7.91685 5.90032 7.91385 6.06232C7.90985 6.19832 7.90985 6.33332 7.90985 6.46932H0.869848V5.20732C0.870848 4.79132 1.20785 4.45332 1.62385 4.45332ZM8.70985 6.64032C8.70885 6.50632 8.70885 6.37132 8.70985 6.22132C9.49385 6.82832 10.2758 7.43832 11.0588 8.05432L8.70985 9.88232L8.71085 9.23632C8.71085 9.01532 8.53085 8.83632 8.31085 8.83632H0.870848V7.26832H8.31085C8.53185 7.26832 8.71085 7.08932 8.71085 6.86832L8.70985 6.64032ZM5.65785 19.5473C4.74485 19.5473 4.00185 18.8033 4.00185 17.8903C4.00185 16.9773 4.74485 16.2333 5.65785 16.2333C6.57085 16.2333 7.31385 16.9773 7.31385 17.8903C7.31385 18.8033 6.57085 19.5473 5.65785 19.5473ZM5.65785 15.4333C4.43885 15.4333 3.42585 16.3253 3.23385 17.4903H1.62285C1.20785 17.4903 0.869848 17.1523 0.869848 16.7373V14.5053H15.0918V17.4903H8.08185C7.88985 16.3243 6.87585 15.4333 5.65785 15.4333ZM19.1688 19.5473C18.2558 19.5473 17.5138 18.8033 17.5138 17.8903C17.5138 16.9773 18.2558 16.2333 19.1688 16.2333C20.0818 16.2333 20.8248 16.9773 20.8248 17.8903C20.8248 18.8033 20.0828 19.5473 19.1688 19.5473ZM21.5928 17.4903C21.4018 16.3243 20.3878 15.4333 19.1688 15.4333C17.9508 15.4333 16.9378 16.3253 16.7458 17.4903H15.8918V12.5243H23.1288L23.1188 17.4903H21.5928Z" fill="#C00407"/>
<path d="M2.62765 11.8979C2.83973 11.8979 3.01165 11.726 3.01165 11.5139C3.01165 11.3018 2.83973 11.1299 2.62765 11.1299C2.41558 11.1299 2.24365 11.3018 2.24365 11.5139C2.24365 11.726 2.41558 11.8979 2.62765 11.8979Z" fill="#C00407"/>
<path d="M4.12375 11.8979C4.33582 11.8979 4.50775 11.726 4.50775 11.5139C4.50775 11.3018 4.33582 11.1299 4.12375 11.1299C3.91167 11.1299 3.73975 11.3018 3.73975 11.5139C3.73975 11.726 3.91167 11.8979 4.12375 11.8979Z" fill="#C00407"/>
<path d="M5.62082 11.8979C5.83289 11.8979 6.00482 11.726 6.00482 11.5139C6.00482 11.3018 5.83289 11.1299 5.62082 11.1299C5.40874 11.1299 5.23682 11.3018 5.23682 11.5139C5.23682 11.726 5.40874 11.8979 5.62082 11.8979Z" fill="#C00407"/>
<path d="M5.66096 18.5915C6.04811 18.5915 6.36196 18.2776 6.36196 17.8905C6.36196 17.5033 6.04811 17.1895 5.66096 17.1895C5.27381 17.1895 4.95996 17.5033 4.95996 17.8905C4.95996 18.2776 5.27381 18.5915 5.66096 18.5915Z" fill="#C00407"/>
<path d="M19.1229 18.5915C19.51 18.5915 19.8239 18.2776 19.8239 17.8905C19.8239 17.5033 19.51 17.1895 19.1229 17.1895C18.7357 17.1895 18.4219 17.5033 18.4219 17.8905C18.4219 18.2776 18.7357 18.5915 19.1229 18.5915Z" fill="#C00407"/>
</svg>

<svg xmlns="http://www.w3.org/2000/svg" xmlns:xlink="http://www.w3.org/1999/xlink" version="1.1" x="0px" y="0px" viewBox="0 0 24 24" enable-background="new 0 0 24 24" xml:space="preserve" style="max-width:100%" height="100%"><g style="" fill="currentColor"><path d="M23.911,12.024c-0.005-0.018-0.004-0.037-0.011-0.053c-0.02-0.049-0.05-0.093-0.087-0.13c0,0,0-0.001-0.001-0.001   l-4.629-4.609c-0.075-0.074-0.176-0.116-0.282-0.116l-3.044-0.002V5.206c0-0.856-0.696-1.553-1.553-1.553H1.624   c-0.856,0-1.554,0.697-1.554,1.553L0.069,16.737c0,0.856,0.697,1.553,1.554,1.553h1.611c0.191,1.166,1.205,2.057,2.424,2.057   s2.232-0.892,2.424-2.057h8.665c0.191,1.166,1.205,2.057,2.423,2.057c1.219,0,2.232-0.892,2.424-2.057h1.926   c0.221,0,0.399-0.179,0.4-0.399l0.012-5.766l0,0c0,0,0,0,0,0C23.931,12.089,23.92,12.057,23.911,12.024z M22.562,11.724H20.14   l0.263-0.675c0.08-0.206-0.021-0.438-0.228-0.518s-0.438,0.021-0.519,0.228l-0.376,0.965h-3.387V7.913l2.844,0.003L22.562,11.724z    M1.624,4.453h12.682c0.415,0,0.752,0.338,0.752,0.753v2.306c0,0.052,0.014,0.102,0.035,0.148v6.045H0.87l0-4.069h7.04L7.91,10.052   c-0.003,0.421,0.249,0.607,0.398,0.679C8.402,10.777,8.5,10.8,8.598,10.8c0.214,0,0.371-0.104,0.469-0.182l2.554-1.988   c0.205-0.161,0.319-0.368,0.319-0.584c0.001-0.204-0.098-0.394-0.277-0.536c-0.871-0.687-1.747-1.369-2.625-2.049   C8.698,5.2,8.208,5.294,8.012,5.65C7.951,5.762,7.917,5.9,7.914,6.062C7.91,6.198,7.91,6.333,7.91,6.469H0.87l0-1.262   C0.871,4.791,1.208,4.453,1.624,4.453z M8.71,6.64c-0.001-0.134-0.001-0.269,0-0.419c0.784,0.607,1.566,1.217,2.349,1.833   L8.71,9.882l0.001-0.646c0-0.221-0.18-0.4-0.4-0.4h-7.44V7.268h7.44c0.221,0,0.4-0.179,0.4-0.4L8.71,6.64z M5.658,19.547   c-0.913,0-1.656-0.744-1.656-1.657s0.743-1.657,1.656-1.657s1.656,0.744,1.656,1.657S6.571,19.547,5.658,19.547z M5.658,15.433   c-1.219,0-2.232,0.892-2.424,2.057H1.623c-0.415,0-0.753-0.338-0.753-0.753l0-2.232h14.222v2.985H8.082   C7.89,16.324,6.876,15.433,5.658,15.433z M19.169,19.547c-0.913,0-1.655-0.744-1.655-1.657s0.742-1.657,1.655-1.657   s1.656,0.744,1.656,1.657S20.083,19.547,19.169,19.547z M21.593,17.49c-0.191-1.166-1.205-2.057-2.424-2.057   c-1.218,0-2.231,0.892-2.423,2.057h-0.854v-4.966h7.237l-0.01,4.966H21.593z" style="" fill="currentColor"></path><circle cx="2.628" cy="11.514" r="0.384" style="" fill="currentColor"></circle><circle cx="4.124" cy="11.514" r="0.384" style="" fill="currentColor"></circle><circle cx="5.621" cy="11.514" r="0.384" style="" fill="currentColor"></circle><circle cx="5.661" cy="17.89" r="0.701" style="" fill="currentColor"></circle><circle cx="19.123" cy="17.89" r="0.701" style="" fill="currentColor"></circle></g></svg>
